src/categories-icons-sprite/categories/svg-cat-electr-care.svg

<svg width="25" height="30" viewBox="0 0 25 30" fill="none" xmlns="http://www.w3.org/2000/svg">
<path class="p-D2C5C2" d="M22.1407 9.54237C18.434 9.54237 17.8849 0 12.1505 0C6.41223 0 5.01089 5.25249 1.30233 5.25249H0L5.49167 15.8788H18.8091L23.443 9.54237H22.1407Z" fill="#B9DFFC"/>
<path class="p-BDACA8" d="M22.1406 9.54237C18.4339 9.54237 17.8848 0 12.1504 0L12.1522 15.8788H18.809L23.4429 9.54237H22.1406Z" fill="#A1D1FD"/>
<path class="p-FEE195" d="M20.1051 25.2538C17.4794 25.2538 14.9134 24.7574 12.4781 23.7785C9.90341 22.7442 7.09459 22.177 4.19558 22.177H0.138672V29.9999H24.162V25.2538H20.1051Z" fill="#A1D1FD"/>
<path class="p-F5C23B" d="M20.1051 25.2538C16.9569 25.2538 14.6706 24.6166 12.1504 23.6516V29.9998H24.1621V25.2538H20.1051Z" fill="#5FBEFF"/>
<path class="p-FD935C" d="M0.138672 14.1211V23.9348H4.19558C6.75607 23.9348 9.35021 24.4164 11.8226 25.4095C14.4671 26.4726 17.2537 27.0117 20.1051 27.0117H24.162V14.1211H0.138672Z" fill="#65B3E7"/>
<path class="p-FD7560" d="M12.1523 14.1211V25.5377C14.6986 26.515 17.3722 27.0117 20.1055 27.0117H24.1624V14.1211H12.1523Z" fill="#4D98CB"/>
</svg>

<svg width="25" height="30" fill="none" xmlns="http://www.w3.org/2000/svg"><path class="p-D2C5C2" d="M22.14 9.542C18.435 9.542 17.886 0 12.15 0 6.412 0 5.01 5.252 1.302 5.252H0L5.492 15.88h13.317l4.634-6.337h-1.302z" fill="#B9DFFC"/><path class="p-BDACA8" d="M22.14 9.542C18.435 9.542 17.886 0 12.15 0l.002 15.879h6.657l4.634-6.337H22.14z" fill="#A1D1FD"/><path class="p-FEE195" d="M20.105 25.254c-2.626 0-5.192-.497-7.627-1.476a22.224 22.224 0 00-8.282-1.601H.139V30h24.023v-4.746h-4.057z" fill="#A1D1FD"/><path class="p-F5C23B" d="M20.105 25.254c-3.148 0-5.434-.637-7.955-1.602V30h12.012v-4.746h-4.057z" fill="#5FBEFF"/><path class="p-FD935C" d="M.139 14.121v9.814h4.057c2.56 0 5.154.481 7.627 1.475a22.106 22.106 0 008.282 1.602h4.057v-12.89H.139z" fill="#65B3E7"/><path class="p-FD7560" d="M12.152 14.121v11.417a22.105 22.105 0 007.954 1.474h4.056v-12.89h-12.01z" fill="#4D98CB"/></svg>
